X:1062
T:The Bouquet.
M:2/4
L:1/16
Q:1/4=104
I: :: :: ::
N:bars 12 and 20 printed as |c4 c4:|
N:bar 16 printed as |([F4e4]c2) cd|
Z:Jack Campin * www.campin.me.uk * 2009
K:C
 G2       |c2c2 edcd |e2c2 G4  |ABcA BcdB|  c2e2`c2 :|
(B/c/d/e/)|g2ga g2c'2|a2f2`f2a2|g2f2`e2d2|  cdef efga|
           g2ga g2c'2|a2f2`f2a2|gagf efge|  c4   c2 :|
 cd       |e2e2`c2c2 |f2f2`d2d2|efge defd|[E4(e4]c2)
 cd       |e2e2`c2c2 |f2f2`d2d2|gagf efed|  c4   c2 :|
<end>
<start>
